images/userexp.svg

<svg xmlns="http://www.w3.org/2000/svg" viewBox="-184 275.6 242.4 242.4" enable-background="new -184 275.6 242.4 242.4"><style type="text/css">.st0{fill:#282828;} .st1{fill:#8C8C8C;} .st2{fill:#F4F3F2;} .st3{fill:#F8B062;} .st4{fill:#302F2F;} .st5{fill:#CFCACE;} .st6{fill:#F5E0CD;} .st7{fill:#474949;} .st8{fill:#4F3820;} .st9{opacity:0.29;fill:#434444;enable-background:new ;}</style><circle class="st0" cx="-62.8" cy="396.8" r="121.2"/><path class="st1" d="M7.6 442.8h-140c-2.6 0-4.6-2-4.6-4.6v-90.2c0-2.6 2-4.6 4.6-4.6h140c2.6 0 4.6 2 4.6 4.6v90.3c0 2.4-2 4.5-4.6 4.5z"/><path class="st2" d="M-130.2 350.9h133.9v84h-133.9v-84z"/><path class="st3" d="M-123.1 357.5h26v12.8h-26v-12.8z"/><path class="st4" d="M-122.8 375.1h26v2.3h-26v-2.3zm0 5.1h26v2.3h-26v-2.3zm0 4.9h26v2.3h-26v-2.3zm0 5.2h26v2.3h-26v-2.3zm0 4.6h26v2.3h-26v-2.3zm0 5.7h12.9v2.3h-12.9v-2.3zm94.9-37.9h26v2.3h-26v-2.3zm0 5.1h26v2.3h-26v-2.3zm0 4.6h26v2.3h-26v-2.3zm.4-15.2h12.9v2.3h-12.9v-2.3zM-154 443.9s-.8 5.1 2.4 7.2h178.5s2.7-1.7 1.3-7.4h-15.2v1.3h-151l-.8-1.2-15.2.1z"/><path class="st3" d="M-58 421.5h18.4v5.9h-18.4v-5.9zM-85.1 421.5h18.4v5.9h-18.4v-5.9z"/><circle class="st3" cx="-62.1" cy="385.3" r="29.3"/><path class="st5" d="M-22.6 403.8l6.8 14.8 1.3-5 4.7 5.1 1.5-1.4-5.1-5 5.5-1.4-14.7-7.1z"/><path class="st6" d="M-73.7 399.9s.4 10 11 11.8c10.5 1.9 10.9-12.7 10.9-12.7s-3.5.1-6.3-2.3c-2.9-2.4 4-7.9 4-7.9l.5-10.6s.3-9.3-7.4-10.5c-7.7-1.2-11.8 9.6-11.8 9.6l1.3 12.1s7 5.5 2.6 7.8-4.8 2.7-4.8 2.7z"/><path class="st7" d="M-73.5 399.7l-3.5 1.2s1 4.5.9 10.1c0 0 13.3 7.5 25.4.8l1.3-12.3-2.8-.6s0 13.4-9.8 12.9c.1-.1-11.5-12.1-11.5-12.1z"/><path class="st8" d="M-67.6 372.8s2.3 5.5 13.8 5.6l-.6 10.4s-4.3 3.5-4.5 6.6c-.1 3.3 7.3 3.7 7.3 3.7l.3-21.1c0-2.2-.3-4.2-1.2-6.3-1.4-3.3-4.3-7.2-10.7-6 0 0-7.7-.5-10.2 7.9l.4 25.8 5.1-2.7s2.4-2-.6-5.1c-2.8-2.8-2.6-2.9-2.6-2.9l-.8-11.5 4.3-4.4z"/><path class="st6" d="M-76.9 400.9s-3.3 3.3-4.2 5.9c0 0 3.3 3.2 5.2 3.7 0-.1.3-8.3-1-9.6zm27.7-1.4l-1.3 12s5.8-2.2 7.9-5.2c0 0-4.1-5.7-6.6-6.8z"/><path class="st9" d="M-62.7 518c-67 0-121.3-54.2-121.3-121.1s54.2-121.3 121.1-121.3l.2 242.4z"/></svg>

<?xml version="1.0" encoding="utf-8"?>
<!-- Generator: Adobe Illustrator 19.1.0, SVG Export Plug-In . SVG Version: 6.00 Build 0)  -->
<svg version="1.1" id="Layer_1" xmlns="http://www.w3.org/2000/svg" xmlns:xlink="http://www.w3.org/1999/xlink" x="0px" y="0px"
	 viewBox="-184 275.6 242.4 242.4" style="enable-background:new -184 275.6 242.4 242.4;" xml:space="preserve">
<style type="text/css">
	.st0{fill:#282828;}
	.st1{fill:#8C8C8C;}
	.st2{fill:#F4F3F2;}
	.st3{fill:#F8B062;}
	.st4{fill:#302F2F;}
	.st5{fill:#CFCACE;}
	.st6{fill:#F5E0CD;}
	.st7{fill:#474949;}
	.st8{fill:#4F3820;}
	.st9{opacity:0.29;fill:#434444;enable-background:new    ;}
</style>
<circle class="st0" cx="-62.8" cy="396.8" r="121.2"/>
<path class="st1" d="M7.6,442.8h-140c-2.6,0-4.6-2-4.6-4.6V348c0-2.6,2-4.6,4.6-4.6h140c2.6,0,4.6,2,4.6,4.6v90.3
	C12.2,440.7,10.2,442.8,7.6,442.8L7.6,442.8z"/>
<path class="st2" d="M-130.2,350.9H3.7v84h-133.9V350.9z"/>
<path class="st3" d="M-123.1,357.5h26v12.8h-26V357.5z"/>
<path class="st4" d="M-122.8,375.1h26v2.3h-26C-122.8,377.4-122.8,375.1-122.8,375.1z M-122.8,380.2h26v2.3h-26
	C-122.8,382.5-122.8,380.2-122.8,380.2z M-122.8,385.1h26v2.3h-26C-122.8,387.4-122.8,385.1-122.8,385.1z M-122.8,390.3h26v2.3h-26
	C-122.8,392.6-122.8,390.3-122.8,390.3z M-122.8,394.9h26v2.3h-26C-122.8,397.2-122.8,394.9-122.8,394.9z M-122.8,400.6h12.9v2.3
	h-12.9V400.6z M-27.9,362.7h26v2.3h-26V362.7z M-27.9,367.8h26v2.3h-26V367.8z M-27.9,372.4h26v2.3h-26V372.4z M-27.5,357.2h12.9
	v2.3h-12.9V357.2z"/>
<path class="st4" d="M-154,443.9c0,0-0.8,5.1,2.4,7.2H26.9c0,0,2.7-1.7,1.3-7.4H13v1.3h-151l-0.8-1.2L-154,443.9L-154,443.9z"/>
<path class="st3" d="M-58,421.5h18.4v5.9H-58V421.5z"/>
<path class="st3" d="M-85.1,421.5h18.4v5.9h-18.4V421.5z"/>
<circle class="st3" cx="-62.1" cy="385.3" r="29.3"/>
<path class="st5" d="M-22.6,403.8l6.8,14.8l1.3-5l4.7,5.1l1.5-1.4l-5.1-5l5.5-1.4L-22.6,403.8z"/>
<path class="st6" d="M-73.7,399.9c0,0,0.4,10,11,11.8c10.5,1.9,10.9-12.7,10.9-12.7s-3.5,0.1-6.3-2.3c-2.9-2.4,4-7.9,4-7.9l0.5-10.6
	c0,0,0.3-9.3-7.4-10.5c-7.7-1.2-11.8,9.6-11.8,9.6l1.3,12.1c0,0,7,5.5,2.6,7.8C-73.3,399.5-73.7,399.9-73.7,399.9L-73.7,399.9z"/>
<path class="st7" d="M-73.5,399.7l-3.5,1.2c0,0,1,4.5,0.9,10.1c0,0,13.3,7.5,25.4,0.8l1.3-12.3l-2.8-0.6c0,0,0,13.4-9.8,12.9
	C-61.9,411.7-73.5,399.7-73.5,399.7z"/>
<path class="st8" d="M-67.6,372.8c0,0,2.3,5.5,13.8,5.6l-0.6,10.4c0,0-4.3,3.5-4.5,6.6c-0.1,3.3,7.3,3.7,7.3,3.7l0.3-21.1
	c0-2.2-0.3-4.2-1.2-6.3c-1.4-3.3-4.3-7.2-10.7-6c0,0-7.7-0.5-10.2,7.9l0.4,25.8l5.1-2.7c0,0,2.4-2-0.6-5.1c-2.8-2.8-2.6-2.9-2.6-2.9
	l-0.8-11.5L-67.6,372.8L-67.6,372.8z"/>
<path class="st6" d="M-76.9,400.9c0,0-3.3,3.3-4.2,5.9c0,0,3.3,3.2,5.2,3.7C-75.9,410.4-75.6,402.2-76.9,400.9z M-49.2,399.5
	l-1.3,12c0,0,5.8-2.2,7.9-5.2C-42.6,406.3-46.7,400.6-49.2,399.5L-49.2,399.5z"/>
<path class="st9" d="M-62.7,518c-67,0-121.3-54.2-121.3-121.1s54.2-121.3,121.1-121.3L-62.7,518z"/>
</svg>
